X:1
T:Miss Gordon of Park
T:Miss Gordon of Park
T:William Marshall
C:William Marshall
%%score { ( 1 2 ) 3 }
L:1/8
M:6/8
K:F
V:1 treble 
V:2 treble 
V:3 bass 
V:1
 F2 F c<AF | F>GF [Fd]3 | c<AF F2 A | G<EC C>DE | F2 F c<AF | F>GF{A} a2 a | gaf efd | %7
 [Gc]d[FB] [FA]B[CG] | F2 F c<AF | F>GF [Fd]3 | c<AF F2 A | GEC CDE | F2 F cAF | F>GF{A} a2 a | %14
 [cg]a[cf] [ce]f[Fd] | c3 c3 |] c2 c gec | cdc c2 [ca] | [cb]2 g [ca]2 f | [cg]2 f edc | c2 c gec | %21
 cdc [cb]3 | [ca]gf cde | f3 F2 c | c2 c gec | c>dc c2 [ca] | [cb]2 g [ca]2 f | [cg]2 f edc | %28
 [Af]3 cAc | [Fd]3 [FB]2 [Fd] | cba [Bg]f[Be] | fcA [Ff]3 |] %32
V:2
 x6 | x6 | x6 | x6 | x6 | x6 | c3 G3 | x6 | x6 | x6 | x6 | x6 | x6 | x6 | x6 | x6 |] x6 | x6 | x6 | %19
 x6 | x6 | x6 | x6 | x6 | x6 | x6 | x6 | x6 | x6 | x6 | x6 | x6 |] %32
V:3
 F,A,C F,A,C | F,A,C F,B,D | F,A,C F,A,C | C,G,B, C,G,B, | F,A,C F,A,C | F,A,C F,A,C | %6
 [E,C]2 [F,C] [G,C]2 [G,DF] | [CE]2 [F,D] [F,C]2 [C,G,B,] | F,A,C F,A,C | F,A,C F,B,D | %10
 F,A,C F,A,C | C,G,B, C,G,B, | F,A,C F,A,C | F,A,C F,A,C | [E,C]2 [F,C] [C,G,]2 [G,,G,] | %15
 C,E,G, C3 |] E,B,C E,B,C | F,A,C F,A,C | E,G,C F,A,C | C,G,C C,G,C | E,G,C E,G,C | E,G,C E,G,C | %22
 F,A,C C,G,B, | F,A,C F,2 z | E,B,C E,B,C | F,A,C F,A,C | E,G,C F,A,C | C,G,B, C,G,B, | %28
 F,A,C F,A,C | B,,D,F, B,2 B,, | C,G,C C,G,C | F,A,C F,3 |] %32

